svgs/thin/cricket-bat-ball.svg

<svg xmlns="http://www.w3.org/2000/svg" viewBox="0 0 512 512"><!--! Font Awesome Pro 6.0.0-alpha3 by @fontawesome - https://fontawesome.com License - https://fontawesome.com/license (Commercial License) --><path d="M431.1 352c-44.25 0-80 35.75-80 79.1S387.7 512 431.1 512c44.25 0 80-35.75 80-79.1S476.2 352 431.1 352zM431.1 496c-35.29 0-64-28.71-64-64s28.71-64 64-64c35.29 0 64 28.71 64 64S467.3 496 431.1 496zM419 238c0-9.285-3.625-18.02-10.19-24.59l-27.62-27.64l123.9-123.1C509.7 57.25 512 51.23 512 45.21s-2.289-12.04-6.867-16.62l-21.94-21.93c-4.406-4.439-10.49-6.659-16.59-6.659s-12.2 2.22-16.63 6.659l-123.9 123.1l-27.59-27.62c-6.777-6.78-15.68-10.16-24.58-10.16c-8.912 0-17.82 3.392-24.61 10.16L11.62 340.7c-7.483 7.514-11.62 17.18-11.62 26.92C.0004 474.1 111.5 512 144.2 512c9.781 0 19.47-4.143 26.97-11.65l237.6-237.7C415.4 256.1 419 247.3 419 238zM312 336.8l-152.1 152.2c-4.474 4.476-10.47 6.937-15.9 6.937c-93.03 0-127.1-99.52-127.1-128.3c0-5.479 2.541-11.22 6.927-15.63L208 166.9V296c0 4.422 3.594 8 8 8h128.8L312 336.8zM397.5 251.3l-37.5 37.52V288L224 287.1L224 150.9l36.56-36.58c3.656-3.658 8.471-5.486 13.28-5.486s9.625 1.828 13.28 5.486l38.91 38.94l135.3-135.3c1.411-1.427 3.364-2.142 5.315-2.142c1.94 0 3.879 .7075 5.281 2.126l21.94 21.93C495.3 41.37 496 43.29 496 45.21s-.7266 3.846-2.18 5.308l-135.3 135.3l38.94 38.96c3.562 3.549 5.5 8.27 5.5 13.27S401.1 247.8 397.5 251.3z"/></svg>

<svg xmlns="http://www.w3.org/2000/svg" viewBox="0 0 512 512"><!-- Font Awesome Pro 6.0.0-alpha2 by @fontawesome - https://fontawesome.com License - https://fontawesome.com/license (Commercial License) --><path d="M431.97 352C387.72 352 351.968 387.75 351.968 432S387.72 512 431.97 512C476.222 512 511.972 476.25 511.972 432S476.222 352 431.97 352ZM431.97 496C396.681 496 367.97 467.289 367.97 432S396.681 368 431.97 368C467.261 368 495.972 396.711 495.972 432S467.261 496 431.97 496ZM419.005 238.039C419.005 228.754 415.38 220.016 408.818 213.449L381.193 185.812L505.132 61.838C509.711 57.25 512 51.232 512 45.214S509.711 33.178 505.132 28.59L483.195 6.658C478.789 2.219 472.702 -0.001 466.608 -0.001S454.412 2.219 449.974 6.658L326.035 130.633L298.441 103.012C291.664 96.231 282.763 92.847 273.862 92.847C264.95 92.847 256.037 96.239 249.252 103.012L208.279 144H208.002V144.277L160.293 192H160V192.295L11.623 340.723C4.14 348.237 0 357.905 0 367.638C0 474.105 111.512 512 144.218 512C153.999 512 163.687 507.857 171.189 500.354L408.818 262.627C415.38 256.062 419.005 247.324 419.005 238.039ZM312.004 336.848L159.875 489.037C155.401 493.513 149.4 495.974 143.974 495.974C50.946 495.974 16.008 396.454 16.008 367.673C16.008 362.193 18.549 356.457 22.935 352.041L208.002 166.912V296C208.002 300.422 211.595 304 216.002 304H344.839L312.004 336.848ZM397.505 251.311L360.004 288.826V288H224.002V150.906L260.564 114.33C264.22 110.672 269.035 108.844 273.847 108.844S283.472 110.672 287.129 114.33L326.035 153.268L461.287 17.992C462.698 16.565 464.65 15.85 466.601 15.85C468.542 15.85 470.48 16.558 471.882 17.977L493.82 39.906C495.273 41.368 496 43.291 496 45.214S495.273 49.06 493.82 50.521L358.566 185.812L397.505 224.768C401.068 228.316 403.005 233.037 403.005 238.039S401.068 247.762 397.505 251.311Z "></path></svg>
